symbols/web/flashlight_off/materialsymbolsoutlined/flashlight_off_wght500_48px.svg

<svg xmlns="http://www.w3.org/2000/svg" height="48" width="48"><path d="m39.95 42.95-7.45-7.4v8.8H16.9v-24.3L3.1 6.15 5.35 3.9l36.8 36.8Zm-19.6-2h8.75v-8.8l-8.75-8.8Zm12.15-14.3-3.4-3.45v-2.1l4.5-6.55v-1.7H18.75l-3-3H33.6v-2.8H15.75v2.8L12.4 6.5V3.65H37V15.4L32.5 22Zm-7.8 1.1Zm0-8.95Z"/></svg>

<svg xmlns="http://www.w3.org/2000/svg" height="48" width="48"><path d="M39.95 42.95 32.5 35.55V44.35H16.9V20.05L3.1 6.15L5.35 3.9L42.15 40.7ZM20.35 40.95H24.7H29.1V32.15L20.35 23.35ZM32.5 26.65 29.1 23.2V21.1L33.6 14.55V12.85H18.75L15.75 9.85H33.6V7.05H15.75V9.85L12.4 6.5V3.65H37V15.4L32.5 22ZM24.7 27.75ZM24.7 18.8Z"/></svg>
